X:0392
T:O'er the Muir to Maggy.
N:no repeat marked after first part
M:C|
L:1/8
Q:1/2=80
I: || ::
Z:Jack Campin * www.campin.me.uk * 2009
K:G
  f>e |d2B2 g2B2|A2a4      fe |d2B2 g2B2|d2 g2 d3 B|
       c2e2 B2g2|agfe (Tf>ga)f|gage dBGB|d2(g2 g2)||
(Tf>e)|dBgB G3 B|A2a4      fe |dBgB GABc|dgfe  dedB|
       cecA BdBG|Aaga (Tf>ga)f|gage dBGB|d2 g2 g2 :|
<end>
<start>
